X:23
T:The Water of Tyne
Z:Jack Campin, http://www.campin.me.uk/
S:Northumbrian Minstrelsy
M:6/8
L:1/8
K:D
 A    |A F F  A F  E | D D>````D  D2
(E/F/)|G G F  E F  A |(B`A) B/ B/ B2
(F/E/)|D d> d d e>  f| d A> ```B  B2
(c/d/)|A F A  A> F E | D D> ```D  D2|]

